X:0305
T:Blue Bonnets
P:Blue Bonnets
C:Traditional
R:Jig (8x32)
B:RSCDS 3-5
Z:Anselm Lingnau <anselm@strathspey.org>
M:6/8
L:1/8
K:Bb
|:"Bb"[B3D3] "Eb"[B3G3B,3]|"Bb"Bdc [B2F2]F|"Eb"BGG G2 f|"Bb"gfd "F7"{d}[c2E2]B|
  "Bb"[B3D3] "Eb"[B3G3B,3]|"Bb"Bdc [B2F2]F|\
			  "Eb"B>AG "Bb"FDF|"Eb"G<Bd "F7"[c2E2]"Bb"[BD]:|
|:"Bb"B>df fdB|"Eb"g>fd "Bb"dcB|B>df "Eb"gab|"Gm"B>cd "F7"{d}[c2E2][BD]|
  "Bb"B>df fdB|"Eb"g>fd "Bb"dcB|"Gm"B>AG "Bb"FDF|"Eb"G<Bd "F7"[c2E2]"Bb"[BD]:|

